static/img/misc/min-star-half.svg

<svg fill="none" height="36" viewBox="0 0 36 36" width="36" xmlns="http://www.w3.org/2000/svg"><g stroke="#8a2432" stroke-width="2"><path d="m17.9006 3 5.0432 9.5586 10.6493 1.8426-7.5324 7.7502 1.5384 10.6974-9.6985-4.7688-9.69842 4.7688 1.53839-10.6974-7.53237-7.7502 10.6492-1.8426z"/><path d="m8.05452 32.8488 9.69848-4.7688v-25.08l-5.0432 9.5586-10.64925 1.8426 7.53237 7.7502z" fill="#8a2432"/></g></svg>

<svg width="36" height="36" viewBox="0 0 36 36" fill="none" xmlns="http://www.w3.org/2000/svg">
<path d="M17.9006 3L22.9438 12.5586L33.5931 14.4012L26.0607 22.1514L27.5991 32.8488L17.9006 28.08L8.20218 32.8488L9.74057 22.1514L2.2082 14.4012L12.8574 12.5586L17.9006 3Z" stroke="#8A2432" stroke-width="2"/>
<path d="M8.05452 32.8488L17.753 28.08V3L12.7098 12.5586L2.06055 14.4012L9.59292 22.1514L8.05452 32.8488Z" fill="#8A2432" stroke="#8A2432" stroke-width="2"/>
</svg>
